app/img/icons/facebook.svg

<svg width="12" height="20" viewBox="0 0 12 20" fill="none" xmlns="http://www.w3.org/2000/svg">
<path d="M3.198 19.5H7.198V11.49H10.802L11.198 7.51H7.198V5.5C7.198 5.23478 7.30336 4.98043 7.4909 4.79289C7.67843 4.60536 7.93279 4.5 8.198 4.5H11.198V0.5H8.198C6.87192 0.5 5.60015 1.02678 4.66247 1.96447C3.72479 2.90215 3.198 4.17392 3.198 5.5V7.51H1.198L0.802002 11.49H3.198V19.5Z" fill="black"/>
</svg>

<svg width="12" height="20" fill="none" xmlns="http://www.w3.org/2000/svg"><path d="M3.198 19.5h4v-8.01h3.604l.396-3.98h-4V5.5a1 1 0 011-1h3v-4h-3a5 5 0 00-5 5v2.01h-2l-.396 3.98h2.396v8.01z" fill="#000"/></svg>
